swiss/communes/0946.svg

<?xml version="1.0" encoding="UTF-8" standalone="no"?>
<svg
   xmlns:dc="http://purl.org/dc/elements/1.1/"
   xmlns:cc="http://web.resource.org/cc/"
   xmlns:rdf="http://www.w3.org/1999/02/22-rdf-syntax-ns#"
   xmlns:svg="http://www.w3.org/2000/svg"
   xmlns="http://www.w3.org/2000/svg"
   xmlns:xlink="http://www.w3.org/1999/xlink"
   xmlns:sodipodi="http://sodipodi.sourceforge.net/DTD/sodipodi-0.dtd"
   xmlns:inkscape="http://www.inkscape.org/namespaces/inkscape"
   height="763"
   width="603"
   version="1.0"
   id="svg20"
   sodipodi:version="0.32"
   inkscape:version="0.44.1"
   sodipodi:docname="Wachseldorn-coat of arms.svg"
   sodipodi:docbase="F:\Mis Documentos\Mis imágenes\Encyclopédie\Escudos de Suiza">
  <metadata
     id="metadata31">
    <rdf:RDF>
      <cc:Work
         rdf:about="">
        <dc:format>image/svg+xml</dc:format>
        <dc:type
           rdf:resource="http://purl.org/dc/dcmitype/StillImage" />
        <dc:date>07-AUG-2006</dc:date>
        <dc:creator>
          <cc:Agent>
            <dc:title>Jérôme BLUM (wagner51)</dc:title>
          </cc:Agent>
        </dc:creator>
        <cc:license
           rdf:resource="http://creativecommons.org/licenses/GPL/2.0/" />
        <dc:coverage />
        <dc:description>Gabarit pour le Projet:Blasons de WIkipédia</dc:description>
        <dc:subject>
          <rdf:Bag>
            <rdf:li>blason suisse modèle gabarit projet blasons</rdf:li>
          </rdf:Bag>
        </dc:subject>
        <dc:language>fr</dc:language>
        <dc:title>Gabrit d'un blason suisse</dc:title>
      </cc:Work>
      <cc:License
         rdf:about="http://creativecommons.org/licenses/GPL/2.0/">
        <cc:permits
           rdf:resource="http://web.resource.org/cc/Reproduction" />
        <cc:permits
           rdf:resource="http://web.resource.org/cc/Distribution" />
        <cc:requires
           rdf:resource="http://web.resource.org/cc/Notice" />
        <cc:permits
           rdf:resource="http://web.resource.org/cc/DerivativeWorks" />
        <cc:requires
           rdf:resource="http://web.resource.org/cc/ShareAlike" />
        <cc:requires
           rdf:resource="http://web.resource.org/cc/SourceCode" />
      </cc:License>
    </rdf:RDF>
  </metadata>
  <defs
     id="defs29">
    <linearGradient
       id="linearGradient2893">
      <stop
         style="stop-color:#ffffff;stop-opacity:0.3137255;"
         offset="0"
         id="stop2895" />
      <stop
         id="stop2897"
         offset="0.19"
         style="stop-color:#ffffff;stop-opacity:0.25098041;" />
      <stop
         style="stop-color:#6b6b6b;stop-opacity:0.1254902;"
         offset="0.60000002"
         id="stop2901" />
      <stop
         style="stop-color:#000000;stop-opacity:0.1254902;"
         offset="1"
         id="stop2899" />
    </linearGradient>
    <linearGradient
       id="linearGradient2955">
      <stop
         style="stop-color:white;stop-opacity:0;"
         offset="0"
         id="stop2965" />
      <stop
         style="stop-color:black;stop-opacity:0.64583331;"
         offset="1"
         id="stop2959" />
    </linearGradient>
    <radialGradient
       inkscape:collect="always"
       xlink:href="#linearGradient2893"
       id="radialGradient3236"
       gradientUnits="userSpaceOnUse"
       gradientTransform="matrix(1.215027,1.531577e-24,1.464684e-23,1.266667,-839.1924,-490.4894)"
       cx="858.04236"
       cy="579.93323"
       fx="858.04236"
       fy="579.93323"
       r="300" />
  </defs>
  <sodipodi:namedview
     inkscape:window-height="682"
     inkscape:window-width="1024"
     inkscape:pageshadow="2"
     inkscape:pageopacity="0.0"
     guidetolerance="10.0"
     gridtolerance="10.0"
     objecttolerance="10.0"
     borderopacity="1.0"
     bordercolor="#666666"
     pagecolor="#ffffff"
     id="base"
     inkscape:zoom="0.48301887"
     inkscape:cx="723.86147"
     inkscape:cy="277.9923"
     inkscape:window-x="-4"
     inkscape:window-y="-4"
     inkscape:current-layer="layer2"
     showgrid="true" />
  <desc
     id="desc22">Coat of Arms of Canton of Freiburg (Fribourg)</desc>
  <g
     inkscape:groupmode="layer"
     id="layer1"
     inkscape:label="Fond écu"
     sodipodi:insensitive="true">
    <path
       id="path1899"
       d="M 1.5,1.49998 L 1.5,460.3679 C 1.5,626.6785 135.81456,761.5 301.49999,761.5 C 467.18543,761.5 601.5,626.6785 601.5,460.3679 L 601.5,1.49998 L 1.5,1.49998 z "
       style="fill:#fcef3c;fill-opacity:1" />
  </g>
  <g
     inkscape:groupmode="layer"
     id="layer2"
     inkscape:label="Meubles">
    <g
       id="g13452"
       transform="matrix(4.156631,0,0,4.156631,-2591.901,-2367.153)">
      <path
         sodipodi:nodetypes="cccccccccccccccccc"
         id="path9908"
         d="M 718.90205,582.81701 L 717.8041,589.64692 C 722.41838,584.14148 727.03265,582.4942 731.64692,580.25513 L 730,588 C 732.61558,584.49789 736.83958,582.60419 741.88914,581.53607 L 740.18299,585.98709 C 744.74767,584.16115 749.17157,585.05206 753.29385,585.43812 L 749.45103,590.43812 C 754.95027,589.39459 759.97751,591.18304 765,593 C 761.59415,598.09243 757.54967,600.94968 753.17008,602.63402 L 758.47684,604.88914 C 755.28363,608.42822 751.42158,610.79681 746.28094,610.92786 L 751.09795,613.73197 C 747.30001,616.85741 742.76992,617.23708 738.53607,617.26803 L 742.43812,620.8041 C 737.84536,621.92827 733.25259,622.39296 728.65983,620.98709 L 731.82992,624.46393 C 706.98043,630.15161 689.52963,601.96208 718.90205,582.81701 z "
         style="fill:#5ab532;fill-opacity:1;fill-rule:evenodd;stroke:black;stroke-width:1px;stroke-linecap:butt;stroke-linejoin:miter;stroke-opacity:1" />
      <path
         sodipodi:nodetypes="cccc"
         id="path6356"
         d="M 697.74487,615.37889 L 696.46393,624.52316 C 711.84585,614.15712 724.8943,602.34655 750,598 C 733.60635,598.61053 713.64041,604.69181 697.74487,615.37889 z "
         style="fill:#5ab532;fill-opacity:1;fill-rule:evenodd;stroke:black;stroke-width:1px;stroke-linecap:butt;stroke-linejoin:miter;stroke-opacity:1" />
      <path
         sodipodi:nodetypes="cccccccccccccccccc"
         id="path10795"
         d="M 675,588 L 675,593 C 671.16606,588.08183 666.30024,585.74334 661.52316,583.18299 L 663.17008,589.64692 C 658.78006,585.17022 654.39003,584.15738 650,583 L 652.25513,588.73197 C 647.98737,586.57621 643.28406,586.16266 638.53607,585.92786 L 642.56188,590.62111 C 637.76399,589.58793 632.53351,591.15024 627.25513,593 C 629.83808,597.79394 633.28596,600.42558 636.82992,602.81701 L 630,604.46393 C 633.24188,607.53338 636.82083,609.25451 640.54897,610.37889 L 635.91496,613.54897 C 639.74248,617.4132 645.98771,618.2553 651.64692,619.82992 L 646.64692,622.45103 C 651.82141,625.13514 657.1686,625.30266 661.88914,623.91496 L 658.47684,628.54897 C 675.1844,632.2602 700.24178,615.23853 675,588 z "
         style="fill:#5ab532;fill-opacity:1;fill-rule:evenodd;stroke:black;stroke-width:1px;stroke-linecap:butt;stroke-linejoin:miter;stroke-opacity:1" />
      <path
         sodipodi:nodetypes="cccc"
         id="path7245"
         d="M 690.18299,620.56188 C 676.11033,606.58135 658.847,603.64905 642.56188,597.63402 C 659.17296,605.53562 680.37511,616.15839 689.45103,628.36598 L 690.18299,620.56188 z "
         style="fill:#5ab532;fill-opacity:1;fill-rule:evenodd;stroke:black;stroke-width:1px;stroke-linecap:butt;stroke-linejoin:miter;stroke-opacity:1" />
      <path
         sodipodi:nodetypes="cccccccccccccccccc"
         id="path9021"
         d="M 670,653 L 672.8041,658.97419 C 668.81704,656.38083 665.48586,653.56884 658.71906,651.90205 L 661.28094,656.90205 C 656.95104,654.78948 652.43828,653.59117 647.62111,653.91496 L 651.46393,658 C 646.64905,657.07441 641.76113,656.51401 636.46393,658 L 641.28094,662.08504 C 636.46393,662.13242 631.64692,662.79287 626.82992,665.74487 C 629.79944,668.71005 632.56572,671.87847 636.46393,673.91496 L 630.91496,675.8041 C 634.28915,678.19218 639.74144,679.5412 645,680.98709 L 638.11086,684.09795 C 642.27664,686.15917 646.44242,686.61347 650.6082,687.26803 L 644.63402,690.62111 C 651.15111,691.85776 656.25049,692.38556 661.88914,693.18299 L 656.82992,697.45103 C 686.43738,696.94302 701.72861,674.86706 670,653 z "
         style="fill:#5ab532;fill-opacity:1;fill-rule:evenodd;stroke:black;stroke-width:1px;stroke-linecap:butt;stroke-linejoin:miter;stroke-opacity:1" />
      <path
         sodipodi:nodetypes="cccc"
         id="path5469"
         d="M 694.26803,681.90205 C 679.29846,674.44457 659.28334,671.19171 638.53607,668.54897 C 657.34823,672.54712 680.03942,678.90067 691.28094,689.88914 L 694.26803,681.90205 z "
         style="fill:#5ab532;fill-opacity:1;fill-rule:evenodd;stroke:black;stroke-width:1px;stroke-linecap:butt;stroke-linejoin:miter;stroke-opacity:1" />
      <path
         style="fill:#5ab532;fill-opacity:1;fill-rule:evenodd;stroke:black;stroke-width:0.96113509px;stroke-linecap:butt;stroke-linejoin:miter;stroke-opacity:1"
         d="M 718.00412,629.33572 L 716.03127,635.85371 C 719.78975,631.8777 723.47543,631.08005 728.83014,629.31303 L 727.27706,634.39664 C 730.533,632.55006 735.68431,629.20731 740.4619,628.64044 C 739.01977,631.02684 737.74867,632.02563 736.67627,633.99307 C 741.06888,632.12201 747.50967,630.33109 752.08407,630.76015 L 746.48005,634.92505 C 751.34136,634.24421 758.64313,634.34249 763.72355,636.43405 C 761.3286,641.61987 757.53412,643.90801 753.0483,646.47422 L 759.96387,648.05414 C 756.21817,650.85761 752.45712,653.4669 748.56686,654.44128 L 754.25481,655.97503 C 749.69477,658.71134 744.13664,660.78238 738.91067,660.88957 L 745.58017,664.59907 C 740.2084,665.211 732.42377,666.5713 727.29307,664.47097 L 733.67097,669.17519 C 719.658,674.64604 684.13308,653.87413 718.00412,629.33572 z "
         id="path9019"
         sodipodi:nodetypes="cccccccccccccccccc" />
      <path
         style="fill:#5ab532;fill-opacity:1;fill-rule:evenodd;stroke:black;stroke-width:1px;stroke-linecap:butt;stroke-linejoin:miter;stroke-opacity:1"
         d="M 697.14692,658.62184 L 699.2183,669.14692 C 702.48548,659.84303 729.96014,647.2083 750.58697,641.17318 C 731.74754,644.28078 712.77341,649.38857 697.14692,658.62184 z "
         id="path5467"
         sodipodi:nodetypes="cccc" />
      <path
         sodipodi:nodetypes="cccccccccccccccccc"
         id="path8132"
         d="M 717.56188,685.07214 L 715,691.71906 C 719.19362,687.87539 724.15955,685.31891 729.81701,683.91496 L 727.8041,689.09795 C 731.30696,687.43756 735.40045,686.3678 740.36598,686.17008 L 736.52316,692.45103 C 741.19843,690.85892 745.8737,689.73585 750.54897,690.56188 L 746.88914,694.64692 C 751.95014,694.33706 757.01114,694.84626 762.07214,697.45103 C 759.18404,702.67127 754.82781,705.68932 750,708 L 757.25513,709.28094 C 753.17008,711.90062 749.08504,714.31615 745,715.01291 L 750.73197,717.08504 C 745.81387,719.56731 740.93879,720.39171 735.54897,720.07214 L 741.09795,725.37889 C 735.51694,725.57461 729.86982,726.16704 724.75778,723.54897 L 730,728.91496 C 713.74731,734.13253 676.7263,710.09538 717.56188,685.07214 z "
         style="fill:#5ab532;fill-opacity:1;fill-rule:evenodd;stroke:black;stroke-width:1px;stroke-linecap:butt;stroke-linejoin:miter;stroke-opacity:1" />
      <path
         sodipodi:nodetypes="cccc"
         id="path3695"
         d="M 692.62111,713 L 695.91496,722.63402 C 700.12175,713.71552 727.94687,704.62644 749.08504,700.74487 C 732.90058,702.56348 709.11441,705.42294 692.62111,713 z "
         style="fill:#5ab532;fill-opacity:1;fill-rule:evenodd;stroke:black;stroke-width:1px;stroke-linecap:butt;stroke-linejoin:miter;stroke-opacity:1" />
      <path
         sodipodi:nodetypes="cccccccccccccccccc"
         id="path1921"
         d="M 685.18299,746.53607 L 702.25513,743.36598 L 694.63402,712.08504 L 703.17008,685.07214 L 764.63402,673.54897 L 701.64692,673.18299 L 695,648 L 698.90205,615.1959 L 695.73197,577.08504 L 690.36598,608.48444 L 687.43812,635.01291 L 626.46393,637.63402 L 686.46393,648.54897 L 693.17008,680.8041 L 684.81701,704.64692 L 630.7912,705.98709 L 683.71906,717.63402 L 685.18299,746.53607 z "
         style="fill:black;fill-opacity:1;fill-rule:evenodd;stroke:black;stroke-width:1px;stroke-linecap:butt;stroke-linejoin:miter;stroke-opacity:1" />
    </g>
  </g>
  <g
     inkscape:groupmode="layer"
     id="layer3"
     inkscape:label="Reflet final"
     style="display:inline"
     sodipodi:insensitive="true">
    <path
       style="fill:url(#radialGradient3236);fill-opacity:1"
       d="M 1.5,1.5 L 1.5,460.3679 C 1.5,626.67854 135.81454,761.5 301.49993,761.5 C 467.1854,761.5 601.5,626.67854 601.5,460.3679 L 601.5,1.5 L 1.5,1.5 z "
       id="path2346" />
  </g>
  <g
     inkscape:groupmode="layer"
     id="layer4"
     inkscape:label="Contour final"
     style="display:inline"
     sodipodi:insensitive="true">
    <path
       style="fill:none;fill-opacity:1;stroke:#000000;stroke-width:3;stroke-miterlimit:4;stroke-dasharray:none;stroke-opacity:1"
       d="M 1.5,1.5 L 1.5,460.36794 C 1.5,626.67854 135.81454,761.5 301.49993,761.5 C 467.1854,761.5 601.5,626.67854 601.5,460.36794 L 601.5,1.5 L 1.5,1.5 z "
       id="path3239" />
  </g>
</svg>

<svg xmlns="http://www.w3.org/2000/svg" xmlns:xlink="http://www.w3.org/1999/xlink" height="763" width="603" version="1.0"><defs><radialGradient xlink:href="#a" id="b" gradientUnits="userSpaceOnUse" gradientTransform="matrix(1.21503 0 0 1.26667 -839.192 -490.49)" cx="858.042" cy="579.933" fx="858.042" fy="579.933" r="300"/><linearGradient id="a"><stop style="stop-color:#fff;stop-opacity:.3137255" offset="0"/><stop offset=".19" style="stop-color:#fff;stop-opacity:.25098041"/><stop style="stop-color:#6b6b6b;stop-opacity:.1254902" offset=".6"/><stop style="stop-color:#000;stop-opacity:.1254902" offset="1"/></linearGradient></defs><path d="M1.5 1.5v458.868c0 166.31 134.315 301.132 300 301.132s300-134.822 300-301.132V1.5H1.5z" style="fill:#fcef3c;fill-opacity:1"/><path d="m718.902 582.817-1.098 6.83c4.614-5.506 9.229-7.153 13.843-9.392L730 588c2.616-3.502 6.84-5.396 11.89-6.464l-1.707 4.451c4.565-1.826 8.989-.935 13.11-.549l-3.842 5c5.5-1.043 10.527.745 15.549 2.562-3.406 5.092-7.45 7.95-11.83 9.634l5.307 2.255c-3.193 3.54-7.055 5.908-12.196 6.039l4.817 2.804c-3.798 3.125-8.328 3.505-12.562 3.536l3.902 3.536c-4.593 1.124-9.185 1.589-13.778.183l3.17 3.477c-24.85 5.688-42.3-22.502-12.928-41.647z" style="fill:#5ab532;fill-opacity:1;fill-rule:evenodd;stroke:#000;stroke-width:1px;stroke-linecap:butt;stroke-linejoin:miter;stroke-opacity:1" transform="translate(-2591.901 -2367.153) scale(4.15663)"/><path d="m697.745 615.379-1.281 9.144C711.846 614.157 724.894 602.347 750 598c-16.394.61-36.36 6.692-52.255 17.379zM675 588v5c-3.834-4.918-8.7-7.257-13.477-9.817l1.647 6.464c-4.39-4.477-8.78-5.49-13.17-6.647l2.255 5.732c-4.268-2.156-8.97-2.57-13.719-2.804l4.026 4.693c-4.798-1.033-10.028.53-15.307 2.379 2.583 4.794 6.031 7.426 9.575 9.817l-6.83 1.647c3.242 3.07 6.82 4.79 10.549 5.915l-4.634 3.17c3.827 3.864 10.073 4.706 15.732 6.28l-5 2.622c5.174 2.684 10.522 2.852 15.242 1.464l-3.412 4.634C675.184 632.26 700.242 615.239 675 588z" style="fill:#5ab532;fill-opacity:1;fill-rule:evenodd;stroke:#000;stroke-width:1px;stroke-linecap:butt;stroke-linejoin:miter;stroke-opacity:1" transform="translate(-2591.901 -2367.153) scale(4.15663)"/><path d="M690.183 620.562c-14.073-13.98-31.336-16.913-47.621-22.928 16.611 7.902 37.813 18.524 46.889 30.732l.732-7.804zM670 653l2.804 5.974c-3.987-2.593-7.318-5.405-14.085-7.072l2.562 5c-4.33-2.113-8.843-3.31-13.66-2.987l3.843 4.085c-4.815-.926-9.703-1.486-15 0l4.817 4.085c-4.817.047-9.634.708-14.451 3.66 2.97 2.965 5.736 6.133 9.634 8.17l-5.549 1.89c3.374 2.387 8.826 3.736 14.085 5.182l-6.89 3.111c4.167 2.061 8.332 2.515 12.498 3.17l-5.974 3.353c6.517 1.237 11.616 1.765 17.255 2.562l-5.06 4.268c29.608-.508 44.9-22.584 13.171-44.451z" style="fill:#5ab532;fill-opacity:1;fill-rule:evenodd;stroke:#000;stroke-width:1px;stroke-linecap:butt;stroke-linejoin:miter;stroke-opacity:1" transform="translate(-2591.901 -2367.153) scale(4.15663)"/><path d="M694.268 681.902c-14.97-7.457-34.985-10.71-55.732-13.353 18.812 3.998 41.503 10.352 52.745 21.34l2.987-7.987z" style="fill:#5ab532;fill-opacity:1;fill-rule:evenodd;stroke:#000;stroke-width:1px;stroke-linecap:butt;stroke-linejoin:miter;stroke-opacity:1" transform="translate(-2591.901 -2367.153) scale(4.15663)"/><path style="fill:#5ab532;fill-opacity:1;fill-rule:evenodd;stroke:#000;stroke-width:.96113509px;stroke-linecap:butt;stroke-linejoin:miter;stroke-opacity:1" d="m718.004 629.336-1.973 6.518c3.759-3.976 7.444-4.774 12.8-6.541l-1.554 5.084c3.256-1.847 8.407-5.19 13.185-5.757-1.442 2.387-2.713 3.386-3.786 5.353 4.393-1.871 10.834-3.662 15.408-3.233l-5.604 4.165c4.861-.68 12.163-.583 17.244 1.51-2.395 5.185-6.19 7.473-10.676 10.04l6.916 1.58c-3.746 2.803-7.507 5.412-11.397 6.386l5.688 1.534c-4.56 2.736-10.118 4.807-15.344 4.915l6.67 3.71c-5.373.611-13.157 1.971-18.288-.129l6.378 4.704c-14.013 5.471-49.538-15.3-15.667-39.84z" transform="translate(-2591.901 -2367.153) scale(4.15663)"/><path style="fill:#5ab532;fill-opacity:1;fill-rule:evenodd;stroke:#000;stroke-width:1px;stroke-linecap:butt;stroke-linejoin:miter;stroke-opacity:1" d="m697.147 658.622 2.071 10.525c3.267-9.304 30.742-21.939 51.369-27.974-18.84 3.108-37.814 8.216-53.44 17.449zM717.562 685.072 715 691.72c4.194-3.844 9.16-6.4 14.817-7.804l-2.013 5.183c3.503-1.66 7.596-2.73 12.562-2.928l-3.843 6.281c4.675-1.592 9.35-2.715 14.026-1.89l-3.66 4.086c5.061-.31 10.122.2 15.183 2.804-2.888 5.22-7.244 8.238-12.072 10.549l7.255 1.28c-4.085 2.62-8.17 5.036-12.255 5.733l5.732 2.072c-4.918 2.482-9.793 3.307-15.183 2.987l5.549 5.307c-5.581.196-11.228.788-16.34-1.83l5.242 5.366c-16.253 5.218-53.274-18.82-12.438-43.843z" transform="translate(-2591.901 -2367.153) scale(4.15663)"/><path d="m692.621 713 3.294 9.634c4.207-8.918 32.032-18.008 53.17-21.89-16.184 1.82-39.97 4.679-56.464 12.256z" style="fill:#5ab532;fill-opacity:1;fill-rule:evenodd;stroke:#000;stroke-width:1px;stroke-linecap:butt;stroke-linejoin:miter;stroke-opacity:1" transform="translate(-2591.901 -2367.153) scale(4.15663)"/><path d="m685.183 746.536 17.072-3.17-7.621-31.281 8.536-27.013 61.464-11.523-62.987-.366L695 648l3.902-32.804-3.17-38.111-5.366 31.4-2.928 26.528-60.974 2.621 60 10.915 6.706 32.255-8.353 23.843-54.026 1.34 52.928 11.647 1.464 28.902z" style="fill:#000;fill-opacity:1;fill-rule:evenodd;stroke:#000;stroke-width:1px;stroke-linecap:butt;stroke-linejoin:miter;stroke-opacity:1" transform="translate(-2591.901 -2367.153) scale(4.15663)"/><g style="display:inline"><path style="fill:url(#b);fill-opacity:1" d="M1.5 1.5v458.868c0 166.31 134.315 301.132 300 301.132s300-134.821 300-301.132V1.5H1.5z"/></g><g style="display:inline"><path style="fill:none;fill-opacity:1;stroke:#000;stroke-width:3;stroke-miterlimit:4;stroke-dasharray:none;stroke-opacity:1" d="M1.5 1.5v458.868c0 166.31 134.315 301.132 300 301.132s300-134.821 300-301.132V1.5H1.5z"/></g></svg>
